X: 9
T: Glass Of Beer, The
Z: Aaron Bergen
S: https://thesession.org/tunes/188#setting48793
R: reel
M: 4/4
L: 1/8
K: Bmin
fBBB aBgB|fBBB fBeB|fBBB fffe|dfaf e2de|
fBBB aBBB|gBBB fBBB|f4 fffe|dfaf e4||
dcde fgfe|defd eAAA|f2de fffe|dfaf edef|
dcde fgfe|defd eAAA|f2de fffe|dfaf e4||

%-------------------- TUNE SEPARATOR --------------------%

